X:1
T: Quaker, The
C: Traditional, Bampton Morris, England
R: Reel
M: 4/4
L: 1/8
K: G
DG|"G"B2B2 "G"AG FE|"C"E2D2 "C"D2DE|"D"F2F2 "D"FE DF|"D"A2G2 "G"G2|
GB|"G"d2ed "Am"c2"Bm"B2|"C"A2E2 "C"E2c2|"D"BA GF "D"E2F2|"G"G4 "G"G2:|
K:D
FG|"D"A2A2 "G"B2B2|"D"AG FG "D"A4|"Em"GF EF "A"G2G2|"D"FE DE "D"F2|
FG|"D"A2A2 "G"B2B2|"D"AG FG "D"A4|"Em"GF EF "A"GA Bc|1"D"d4 "D"-d2:|2"D"d4 "C"=c4|]